incomeartour/img/icons/hearth-two.svg

<svg width="29" height="22" viewBox="0 0 29 22" fill="none" xmlns="http://www.w3.org/2000/svg">
<path d="M18.1481 21.0507L18.1463 21.06C18.1481 21.0581 18.1481 21.0581 18.1509 21.0581C18.1565 21.06 18.1583 21.06 18.1583 21.0637L18.163 21.0544C34.0857 17.1518 28.1952 4.56148 21.2682 9.43203C17.704 1.75116 6.30789 9.71018 18.1481 21.0507Z" fill="black"/>
<path d="M11.3813 19.4103V19.4233C11.3833 19.4213 11.3873 19.4193 11.3923 19.4163C11.3983 19.4193 11.4033 19.4213 11.4043 19.4233V19.4103C12.1283 19.0133 12.7823 18.6093 13.4123 18.2023C10.2463 13.4153 10.9803 9.90035 11.5833 8.40035C12.5183 6.07135 14.6143 4.56735 16.9233 4.56735C18.8613 4.56735 20.5783 5.57435 21.7803 7.37535C21.7863 7.37335 21.7913 7.37135 21.7973 7.36935C22.3863 1.31935 15.9723 -2.26565 11.3913 3.21435C4.08029 -5.53365 -7.96671 8.78835 11.3813 19.4103Z" fill="black"/>
</svg>

<svg width="29" height="22" fill="none" xmlns="http://www.w3.org/2000/svg"><path d="M18.148 21.05l-.002.01c.002-.002.002-.002.005-.002.006.002.007.002.007.006l.005-.01c15.923-3.902 10.032-16.493 3.105-11.622-3.564-7.68-14.96.278-3.12 11.619z" fill="#000"/><path d="M11.381 19.41v.013l.011-.007c.006.003.011.005.012.007v-.013a32.09 32.09 0 002.008-1.208C10.246 13.415 10.98 9.9 11.583 8.4c.935-2.329 3.031-3.833 5.34-3.833 1.938 0 3.655 1.007 4.857 2.808l.017-.006c.59-6.05-5.825-9.635-10.406-4.155-7.31-8.748-19.358 5.574-.01 16.196z" fill="#000"/></svg>
